X: 7003
T: Chicken That Made The Soup, The
R: jig
M: 6/8
K: Dmajor
A3A2A||dAF G2G|AGF E2F|DFD DFA|~d2d f2e|
dAF ~G3|AGF e2z|dfd fef|d3 d2A|
dAF ~G3|AGF E2G|DFD DFA|~d2d f2e|
dAF ~G3|AGF e2z|dfd fef|d3 d2d|
BAA FAA|dAA FAA|BAA AFA|d3 d2d|
BAA FAA|dAF F2D|EDE FEF|D3 d2d|
BAA FAA|dAA F2z|BAA AFA|~d2d f2e|
~d2d c2c|BcB AFA|B2A ABc|~d2d f2e|
dAF G2z|AGF E2F|D2D DFA|~d2d f2e|
dAF ~G2 AGF|e2z dfd|fef d3|d2A dAF|
~G3 AGF|E2F DFD|DFA ~d2d|f2e dAF|
G2z AGf|d2z dfd|fef d3|d3 d2d|
BAA FAA|dAA FAA|BAA AFA|d3 d2d|
BAA FAA|dAF F2D|EDE FEF|D3 d2d|
BAA FAA|dAA F2z|BAA AFA|~d2d f2e|
~d2d c2c|BcB A2z|BAA AFA|dfd f2e|
dAF ~G3|AGF E2z|DFD DFA|~d2d f2e|
dAF ~G3|AGf e2|dfd fef|d3 d2A|
dAF G2z|AGF E2z|DFD DFA|~d2d f2e|
dAF ~G3|AGF e2z|dfd fef|d3 d2d|
BAA FAA|dAA FAA|BAA AFA|d3 d2d|
BAA FAA|dAF F2D|EDE FEF|D3 D2d|
BAA FAA|dAA F2A|BAA AFA|~d2d f2e|
~d2d c2c|BcB AFA|BAA AFA|dfd d3|

